icon-svg/cupra.svg

<svg xmlns="http://www.w3.org/2000/svg" fill="#44739e" viewBox="0 0 24 24"><path d="M18.478 9.835Q20.258 7.081 22 4.3c-3.275 1.145-6.536 2.329-9.82 3.453a.463.463 0 0 1-.347 0C8.544 6.637 5.281 5.443 2 4.3q1.754 2.77 3.522 5.532c.554-.227 1.117-.432 1.678-.654-.32-.565-.664-1.115-.988-1.677 1.057.528 2.129 1.027 3.177 1.573-.728.284-1.461.553-2.183.847a1.246 1.246 0 0 0-.875.951 2.432 2.432 0 0 0 .6 1.475q2.343 3.675 4.688 7.351a19.4 19.4 0 0 0-.006-1.959c-.621-1.986-1.246-3.972-1.811-5.975-.108-.248.159-.421.349-.509.615-.3 1.216-.625 1.842-.9.618.229 1.183.582 1.787.849.214.1.546.263.434.56-.569 2-1.187 3.989-1.812 5.974a18.5 18.5 0 0 0-.011 1.957c1.59-2.471 3.163-4.953 4.745-7.428a2.26 2.26 0 0 0 .552-1.385 1.236 1.236 0 0 0-.869-.961c-.728-.295-1.463-.57-2.2-.849 1.048-.545 2.124-1.04 3.181-1.572-.325.562-.67 1.113-.99 1.677.554.223 1.119.423 1.668.658"/></svg>

<?xml version="1.0" encoding="UTF-8"?>
<svg width="24px" fill="#44739e" height="24px" viewBox="0 0 24 24" version="1.1" xmlns="http://www.w3.org/2000/svg" xmlns:xlink="http://www.w3.org/1999/xlink">
            <path d="M 18.478,9.835 Q 20.258,7.081 22,4.3 c -3.275,1.145 -6.536,2.329 -9.82,3.453 a 0.463,0.463 0 0 1 -0.347,0 C 8.544,6.637 5.281,5.443 2,4.3 Q 3.754,7.07 5.522,9.832 C 6.076,9.605 6.639,9.4 7.2,9.178 6.88,8.613 6.536,8.063 6.212,7.501 7.269,8.029 8.341,8.528 9.389,9.074 8.661,9.358 7.928,9.627 7.206,9.921 a 1.246,1.246 0 0 0 -0.875,0.951 2.432,2.432 0 0 0 0.6,1.475 q 2.343,3.675 4.688,7.351 a 19.391,19.391 0 0 0 -0.006,-1.959 c -0.621,-1.986 -1.246,-3.972 -1.811,-5.975 -0.108,-0.248 0.159,-0.421 0.349,-0.509 0.615,-0.3 1.216,-0.625 1.842,-0.9 0.618,0.229 1.183,0.582 1.787,0.849 0.214,0.1 0.546,0.263 0.434,0.56 -0.569,2 -1.187,3.989 -1.812,5.974 a 18.509,18.509 0 0 0 -0.011,1.957 c 1.59,-2.471 3.163,-4.953 4.745,-7.428 A 2.261,2.261 0 0 0 17.688,10.882 1.236,1.236 0 0 0 16.819,9.921 C 16.091,9.626 15.356,9.351 14.619,9.072 15.667,8.527 16.743,8.032 17.8,7.5 17.475,8.062 17.13,8.613 16.81,9.177 17.364,9.4 17.929,9.6 18.478,9.835 Z"/>

</svg>
